saas-app-landing-page/public/images/socials/discord.svg

<svg width="24" height="24" viewBox="0 0 24 24" fill="none" xmlns="http://www.w3.org/2000/svg">
    <path d="M20.3303 4.5075C18.7767 3.80325 17.1156 3.29143 15.3789 3C15.1656 3.37361 14.9164 3.87612 14.7446 4.27586C12.8985 4.00687 11.0693 4.00687 9.25716 4.27586C9.08539 3.87612 8.83055 3.37361 8.61536 3C6.87681 3.29143 5.21376 3.80513 3.66019 4.51123C0.526643 9.09902 -0.322811 13.5729 0.101917 17.9832C2.18025 19.4869 4.19441 20.4004 6.17457 20.9981C6.66349 20.3462 7.09953 19.6532 7.47518 18.9228C6.75975 18.6594 6.07453 18.3344 5.42707 17.9571C5.59884 17.8338 5.76686 17.7049 5.92918 17.5722C9.87819 19.3618 14.1689 19.3618 18.0707 17.5722C18.235 17.7049 18.403 17.8338 18.5728 17.9571C17.9235 18.3362 17.2364 18.6613 16.521 18.9247C16.8966 19.6532 17.3308 20.3481 17.8216 21C19.8036 20.4022 21.8197 19.4888 23.898 17.9832C24.3964 12.8705 23.0467 8.43775 20.3303 4.5075ZM8.01318 15.2709C6.82772 15.2709 5.85555 14.1986 5.85555 12.8929C5.85555 11.5872 6.80696 10.5131 8.01318 10.5131C9.21942 10.5131 10.1916 11.5853 10.1708 12.8929C10.1727 14.1986 9.21942 15.2709 8.01318 15.2709ZM15.9867 15.2709C14.8013 15.2709 13.8291 14.1986 13.8291 12.8929C13.8291 11.5872 14.7805 10.5131 15.9867 10.5131C17.193 10.5131 18.1651 11.5853 18.1444 12.8929C18.1444 14.1986 17.193 15.2709 15.9867 15.2709Z"
          fill="#EAEDFF"/>
</svg>

<?xml version="1.0" encoding="UTF-8"?>
<svg xmlns="http://www.w3.org/2000/svg" version="1.1" viewBox="0 0 24 24">
  <defs>
    <style>
      .cls-1 {
        fill: #353535;
      }
    </style>
  </defs>
  <!-- Generator: Adobe Illustrator 28.7.0, SVG Export Plug-In . SVG Version: 1.2.0 Build 136)  -->
  <g>
    <g id="_레이어_1" data-name="레이어_1">
      <path class="cls-1" d="M20.3,4.5c-1.6-.7-3.2-1.2-5-1.5-.2.4-.5.9-.6,1.3-1.8-.3-3.7-.3-5.5,0-.2-.4-.4-.9-.6-1.3-1.7.3-3.4.8-5,1.5C.5,9.1-.3,13.6.1,18c2.1,1.5,4.1,2.4,6.1,3,.5-.7.9-1.3,1.3-2.1-.7-.3-1.4-.6-2-1,.2-.1.3-.3.5-.4,3.9,1.8,8.2,1.8,12.1,0,.2.1.3.3.5.4-.6.4-1.3.7-2.1,1,.4.7.8,1.4,1.3,2.1,2-.6,4-1.5,6.1-3,.5-5.1-.9-9.5-3.6-13.5ZM8,15.3c-1.2,0-2.2-1.1-2.2-2.4s1-2.4,2.2-2.4,2.2,1.1,2.2,2.4c0,1.3-1,2.4-2.2,2.4ZM16,15.3c-1.2,0-2.2-1.1-2.2-2.4s1-2.4,2.2-2.4,2.2,1.1,2.2,2.4c0,1.3-1,2.4-2.2,2.4Z"/>
    </g>
  </g>
</svg>
